dist/img/insta.svg

<svg width="19" height="19" viewBox="0 0 19 19" xmlns="http://www.w3.org/2000/svg">
<path d="M5.95996 0.90625C3.18591 0.90625 0.90625 3.18286 0.90625 5.95996V13.04C0.90625 15.8141 3.18286 18.0938 5.95996 18.0938H13.04C15.8141 18.0938 18.0938 15.8171 18.0938 13.04V5.95996C18.0938 3.18591 15.8171 0.90625 13.04 0.90625H5.95996ZM5.95996 2.46875H13.04C14.9718 2.46875 16.5312 4.0282 16.5312 5.95996V13.04C16.5312 14.9718 14.9718 16.5312 13.04 16.5312H5.95996C4.0282 16.5312 2.46875 14.9718 2.46875 13.04V5.95996C2.46875 4.0282 4.0282 2.46875 5.95996 2.46875ZM14.1143 4.17773C13.7206 4.17773 13.4062 4.49207 13.4062 4.88574C13.4062 5.27942 13.7206 5.59375 14.1143 5.59375C14.5079 5.59375 14.8223 5.27942 14.8223 4.88574C14.8223 4.49207 14.5079 4.17773 14.1143 4.17773ZM9.5 4.8125C6.92126 4.8125 4.8125 6.92126 4.8125 9.5C4.8125 12.0787 6.92126 14.1875 9.5 14.1875C12.0787 14.1875 14.1875 12.0787 14.1875 9.5C14.1875 6.92126 12.0787 4.8125 9.5 4.8125ZM9.5 6.375C11.2365 6.375 12.625 7.76355 12.625 9.5C12.625 11.2365 11.2365 12.625 9.5 12.625C7.76355 12.625 6.375 11.2365 6.375 9.5C6.375 7.76355 7.76355 6.375 9.5 6.375Z" />
</svg>

<svg xmlns="http://www.w3.org/2000/svg" viewBox="0 0 19 19"><path d="M5.96.906C3.186.906.906 3.183.906 5.96v7.08c0 2.774 2.277 5.054 5.054 5.054h7.08c2.774 0 5.054-2.277 5.054-5.054V5.96c0-2.774-2.277-5.054-5.054-5.054H5.96zm0 1.563h7.08a3.487 3.487 0 013.491 3.491v7.08a3.487 3.487 0 01-3.491 3.491H5.96a3.487 3.487 0 01-3.491-3.491V5.96A3.487 3.487 0 015.96 2.469zm8.154 1.709a.705.705 0 00-.708.708c0 .393.315.708.708.708a.705.705 0 00.708-.708.705.705 0 00-.708-.708zM9.5 4.813A4.7 4.7 0 004.812 9.5 4.7 4.7 0 009.5 14.188 4.7 4.7 0 0014.188 9.5 4.7 4.7 0 009.5 4.812zm0 1.562A3.112 3.112 0 0112.625 9.5 3.112 3.112 0 019.5 12.625 3.112 3.112 0 016.375 9.5 3.112 3.112 0 019.5 6.375z"/></svg>
